src/static/logos/scribd.svg

<?xml version="1.0" encoding="UTF-8" standalone="no"?>
<svg width="512px" height="131px" viewBox="0 0 512 131" version="1.1" xmlns="http://www.w3.org/2000/svg" xmlns:xlink="http://www.w3.org/1999/xlink" preserveAspectRatio="xMidYMid">
    <g>
        <path d="M512,114.85432 C512,122.948074 505.443347,129.512033 497.370405,129.512033 C489.297464,129.512033 482.740811,122.948074 482.740811,114.85432 C482.740811,106.754582 489.297464,100.188629 497.370405,100.188629 C505.443347,100.188629 512,106.754582 512,114.85432 Z M277.271813,41.3543365 L277.271813,108.102876 L268.587979,108.102876 L268.587979,129.512033 L302.794009,129.512033 L302.794009,41.3543365 L277.271813,41.3543365 Z M50.8493833,52.0130407 C39.0454175,47.7128598 30.0193236,43.7517471 30.0193236,35.2590894 C30.0193236,27.3966994 36.442655,22.5181084 46.7780896,22.5181084 C53.0442204,22.5181084 57.2607753,23.7168137 59.9709913,24.9833326 C59.5610761,26.1780489 59.3023918,27.6001403 59.3023918,29.7223074 C59.3023918,36.7868902 64.7248137,44.3042286 74.7697259,44.3042286 C83.4714696,44.3042286 89.3217155,37.921771 89.3217155,28.4278652 C89.3217155,12.4836882 70.7203206,0 46.9551888,0 C22.0259773,0 4.60060163,15.1044849 4.60060163,36.7370273 C4.60060163,60.4638135 21.088744,68.2504117 44.4061531,76.6732614 C57.2408765,81.1649157 65.2023847,85.5628285 65.2023847,93.5947523 C65.2023847,102.637897 58.0825955,107.825638 45.6756962,107.825638 C39.3578285,107.825638 33.5075825,106.445432 29.2910277,104.01212 C30.0412123,101.993668 30.3735222,99.917374 30.3735222,97.4701009 C30.3735222,90.6428653 24.4615899,83.2631488 14.9161375,83.2631488 C6.1248494,83.2631488 0,90.0943731 0,99.8754894 C0,116.384115 20.8280697,130.335769 45.4886476,130.335769 C72.7818359,130.335769 90.4260987,115.259207 90.4260987,91.939302 C90.4260987,68.0369985 73.2713463,60.0130524 50.8493833,52.0130407 Z M122.329838,85.1100727 C122.329838,68.1686367 133.351781,62.0255211 140.754133,62.0255211 C146.59244,62.0255211 150.413009,64.0918418 152.245688,65.571774 C151.069669,67.558314 150.331424,70.0115714 150.331424,72.1816071 C150.331424,79.9861556 156.913945,86.578038 164.704324,86.578038 C173.595106,86.578038 179.799551,80.0479861 179.799551,70.703669 C179.799551,56.534613 164.184966,41.3543365 140.931233,41.3543365 C114.314603,41.3543365 97.8364099,63.8704503 97.8364099,84.7331084 C97.8364099,111.148505 117.082526,129.599791 144.616489,129.599791 L176.394867,129.599791 L176.394867,108.184652 L146.280029,108.184652 C132.175762,108.184652 122.329838,98.6967293 122.329838,85.1100727 Z M248.323045,41.3543365 C240.094893,41.3543365 232.405997,46.2129823 224.934,56.1775943 L224.934,42.8302798 L189.209691,42.8302798 L189.209691,64.2434252 L201.168868,64.2434252 L201.168868,108.160717 L189.209691,108.160717 L189.209691,129.549929 L239.673038,129.549929 L239.673038,108.160717 L225.672245,108.160717 L225.672245,78.0953527 C228.712781,72.5446093 233.84468,67.3688347 238.528857,65.0332543 C240.807269,68.4877593 245.045713,71.6251363 251.270056,71.6251363 C259.086303,71.6251363 265.445959,64.9993475 265.445959,56.8557304 C265.445959,49.1429293 260.158848,41.3543365 248.323045,41.3543365 Z M355.901905,41.3543365 L340.705195,41.3543365 L340.705195,7.73075182 L315.879457,7.73075182 L315.879457,129.559901 C315.879457,129.559901 344.308867,129.599791 354.612463,129.599791 C377.543836,129.599791 395.502499,110.05551 395.502499,85.1100727 C395.502499,59.7597486 378.843227,41.3543365 355.901905,41.3543365 Z M340.705195,63.1304841 L351.303293,63.1304841 C362.755051,63.1304841 370.455885,72.0419904 370.455885,85.2895792 C370.455885,100.844825 360.534345,107.935337 351.303293,107.935337 L340.705195,107.935337 L340.705195,63.1304841 Z M473.923654,114.85432 C473.923654,107.09365 477.690496,100.22453 483.498955,95.9403052 L483.498955,7.73075182 L446.819504,7.73075182 L446.819504,29.0521494 L458.975679,29.0521494 L458.975679,41.3543365 L445.05846,41.3543365 C422.135047,41.3543365 404.180364,60.8906404 404.180364,85.8400664 C404.180364,111.202357 420.825707,129.577852 443.778968,129.577852 L479.107291,129.577852 C475.869756,125.538953 473.923654,120.42102 473.923654,114.85432 Z M458.975679,108.114843 L448.37758,108.114843 C436.917863,108.114843 429.217029,99.0916438 429.217029,85.6645486 C429.217029,70.1811055 439.156478,63.1304841 448.37758,63.1304841 L458.975679,63.1304841 L458.975679,108.114843 Z M277.271813,7.73075182 L302.794009,7.73075182 L302.794009,30.2029862 L277.271813,30.2029862 L277.271813,7.73075182 Z" fill="#444444"></path>
    </g>
</svg>

<svg width="512" height="131" xmlns="http://www.w3.org/2000/svg" preserveAspectRatio="xMidYMid"><path d="M512 114.854c0 8.094-6.557 14.658-14.63 14.658s-14.63-6.564-14.63-14.658c0-8.1 6.557-14.665 14.63-14.665S512 106.755 512 114.854zm-234.728-73.5v66.749h-8.684v21.409h34.206V41.354h-25.522zM50.849 52.013c-11.804-4.3-20.83-8.261-20.83-16.754 0-7.862 6.424-12.74 16.76-12.74 6.265 0 10.482 1.198 13.192 2.464-.41 1.195-.669 2.617-.669 4.74 0 7.064 5.423 14.581 15.468 14.581 8.701 0 14.552-6.382 14.552-15.876C89.322 12.484 70.72 0 46.955 0 22.026 0 4.601 15.104 4.601 36.737c0 23.727 16.488 31.513 39.805 39.936 12.835 4.492 20.796 8.89 20.796 16.922 0 9.043-7.12 14.23-19.526 14.23-6.318 0-12.168-1.38-16.385-3.813.75-2.018 1.083-4.095 1.083-6.542 0-6.827-5.912-14.207-15.458-14.207C6.125 83.263 0 90.094 0 99.875c0 16.51 20.828 30.46 45.489 30.46 27.293 0 44.937-15.076 44.937-38.396 0-23.902-17.155-31.926-39.577-39.926zm71.48 33.097c0-16.941 11.023-23.084 18.425-23.084 5.838 0 9.659 2.066 11.492 3.546-1.176 1.986-1.915 4.44-1.915 6.61 0 7.804 6.583 14.396 14.373 14.396 8.891 0 15.096-6.53 15.096-15.874 0-14.17-15.615-29.35-38.869-29.35-26.616 0-43.095 22.516-43.095 43.38 0 26.415 19.247 44.866 46.78 44.866h31.779v-21.415H146.28c-14.104 0-23.95-9.488-23.95-23.075zm125.994-43.756c-8.228 0-15.917 4.859-23.389 14.824V42.83H189.21v21.413h11.959v43.918h-11.96v21.389h50.464v-21.39h-14V78.096c3.04-5.55 8.172-10.726 12.856-13.062 2.278 3.455 6.517 6.592 12.741 6.592 7.816 0 14.176-6.626 14.176-14.77 0-7.712-5.287-15.5-17.123-15.5zm107.579 0h-15.197V7.731H315.88V129.56s28.43.04 38.733.04c22.932 0 40.89-19.544 40.89-44.49 0-25.35-16.659-43.756-39.6-43.756zM340.705 63.13h10.598c11.452 0 19.153 8.912 19.153 22.16 0 15.555-9.922 22.645-19.153 22.645h-10.598V63.13zm133.219 51.724c0-7.76 3.766-14.63 9.575-18.914V7.73h-36.68v21.322h12.157v12.302h-13.918c-22.923 0-40.878 19.537-40.878 44.486 0 25.362 16.646 43.738 39.599 43.738h35.328a23.468 23.468 0 01-5.183-14.724zm-14.948-6.74h-10.598c-11.46 0-19.161-9.022-19.161-22.45 0-15.483 9.94-22.534 19.16-22.534h10.599v44.985zM277.272 7.732h25.522v22.472h-25.522V7.731z" fill="#444"/></svg>
